X:1
T:Title
%%score { ( 1 3 ) | ( 2 4 ) }
L:1/8
M:3/4
K:Eb
V:1 treble nm="Grand Piano"
V:3 treble 
V:2 bass 
V:4 bass 
V:1
 z2 z2[Q:1/4=100] B2 | Bc G2 B2 | [GB][FA] [FA]2 [FA]2 | [FA][GB] [DF]2 [FA]2 | %4
[M:2/4] [FA][EG] [EG]2 |[M:1/4] [GB]2 |[M:3/4] [Ac][Ac] [ce]2 [Bd][Ac] | [Ac][GB] [GB]2 c_d | %8
 d3 F c=A |[M:2/4] [DB]4 |[M:1/4] [GB]2 |[M:3/4] [FA]G A2 [B,GB]2 | [Af]4 z2 | G_G =G2 [B,GB]2 | %14
[M:2/4] [Ge]4 |[M:1/4] G2 |[M:3/4] [DF][EG] [FA]2 [GB]2 | [Bd][Ac] [GB]2 [_Ge]2 | %18
 [Ge]3 [EB] [DG][DF] |[M:2/4] E4 |] %20
V:2
 z2 z2 [E,G,E]2 | [E,G,E][E,A,E] [E,B,E]2 [E,G,E]2 | [B,,B,][B,,B,] [B,,B,]2 [B,,B,]2 | %3
 [B,,B,][B,,B,] [B,,B,]2 [B,,B,]2 |[M:2/4] [E,B,][E,B,] [E,B,]2 |[M:1/4] [E,E]2 | %6
[M:3/4] [A,E][A,E] [A,E]2 [A,E]2 | [E,E][E,E] [E,E]2 E,=E, | [F,B,F]3 [F,B,D] [F,=A,E][F,CE] | %9
[M:2/4] [B,,B,]4 |[M:1/4] [B,,B,]2 |[M:3/4] z[K:treble] =E F2[K:bass] B,,2 | [B,D]B, B,2 [B,F]2 | %13
 EE E2 E,2 |[M:2/4] [E,B,]E, E,2 |[M:1/4] [E,B,E]2 |[M:3/4] [B,,B,][B,,B,] [B,,B,]2 [B,,B,]2 | %17
 [B,,B,][D,B,] [E,B,]2 [=B,,=A,]2 | [B,,B,]3 [B,,G,] [B,,A,][B,,A,] |[M:2/4] [E,G,]4 |] %20
V:3
 x6 | x6 | x6 | x6 |[M:2/4] x4 |[M:1/4] x2 |[M:3/4] x6 | z2 z2 [B,G]2 | x6 |[M:2/4] x4 | %10
[M:1/4] x2 |[M:3/4] x6 | z D D2 A2 | x6 |[M:2/4] z B, B,2 |[M:1/4] x2 |[M:3/4] x6 | x6 | x6 | %19
[M:2/4] x4 |] %20
V:4
 x6 | x6 | x6 | x6 |[M:2/4] x4 |[M:1/4] x2 |[M:3/4] x6 | x6 | x6 |[M:2/4] x4 |[M:1/4] x2 | %11
[M:3/4] [B,,B,]4[K:treble][K:bass] z2 | x6 | [E,B,]4 z2 |[M:2/4] x4 |[M:1/4] x2 |[M:3/4] x6 | x6 | %18
 x6 |[M:2/4] x4 |] %20

